X:1
T: Miss Oswald (of Scotstown's) Reel
C:R. Mackintosh
R:Jig
Q: 180
K:D
M:6/8
L:1/8
|:A1/2B1/4c1/4|dcd D2B|AFD D2A|dcd Bcd|efd cBA|
dcd D2B|ABc def|gba gfe|ddd d2:|
|:g|afd afd|ecA ecA|afd afd|
|1bag fge|afd afd|cBA ecA|Bgf edc|d3 D2:|
|2egb bge|afd afd|ecA FAd|Bba gfe|ddd d2||
